X:5666
T:Gan Ainm
R:reel
S:Francis Lynne(?)
H:
N: 
D:Milltown Session 
Z:Adrian Scahill
M:4/4
L:1/8
K:A
e2ce e2ce|fedf eaag|fedc dcBA|GABG Eaaf|\
e2ce e2ce|fedf eaag|fedc dBed|cdBc A4:||\
gbeg bee2|gaag agfe|fedc dcBA|\
GBBG E3a|1 gbeg bee2|gaag agfe|fedc dBed|cdBc A4:|2 e2ce e2ce|fedf eaag|fedc dBed|cdBc A4||\


